svgs/sharp-regular/house-chimney-medical.svg

<svg xmlns="http://www.w3.org/2000/svg" viewBox="0 0 576 512"><!--! Font Awesome Pro 6.6.0 by @fontawesome - https://fontawesome.com License - https://fontawesome.com/license (Commercial License) Copyright 2024 Fonticons, Inc. --><path d="M288 .5l15.5 13.2L464 149.9 464 88l0-24 48 0 0 24 0 102.6 55.5 47.1-31.1 36.6L512 253.5 512 488l0 24-24 0L88 512l-24 0 0-24 0-234.5L39.5 274.3 8.5 237.7l264-224L288 .5zm0 63L112 212.8 112 464l352 0 0-224 0-24 0-3.2L288 63.5zM256 192l64 0 0 64 64 0 0 64-64 0 0 64-64 0 0-64-64 0 0-64 64 0 0-64z"/></svg>

<svg xmlns="http://www.w3.org/2000/svg" viewBox="0 0 576 512"><!--! Font Awesome Pro 6.4.0 by @fontawesome - https://fontawesome.com License - https://fontawesome.com/license (Commercial License) Copyright 2023 Fonticons, Inc. --><path d="M288 .5l15.5 13.2L464 149.9V88 64h48V88 190.6l55.5 47.1-31.1 36.6L512 253.5V488v24H488 88 64V488 253.5L39.5 274.3 8.5 237.7l264-224L288 .5zm0 63L112 212.8V464H464l0-224V216l0-3.2L288 63.5zM256 192h64v64h64v64H320v64H256V320H192V256h64V192z"/></svg>
